src/static/logos/_adroll.svg

<?xml version="1.0" encoding="UTF-8" standalone="no"?>
<svg width="512px" height="116px" viewBox="0 0 512 116" version="1.1" xmlns="http://www.w3.org/2000/svg" xmlns:xlink="http://www.w3.org/1999/xlink" preserveAspectRatio="xMidYMid">
	<g>
		<path d="M469.628797,78.6776438 C469.628797,78.6776438 473.510351,70.0295943 483.098982,71.00197 C483.098982,71.00197 492.963163,71.9743457 493.103588,82.7022722 C493.103588,82.7022722 493.251961,93.4090026 479.48503,93.92566 L423.887398,93.92566 L423.887398,0.662381241 L403.798699,0.662381241 L403.798699,112.694895 L478.663677,112.718741 C512.005299,112.172938 511.022325,83.2268782 511.022325,83.2268782 C509.782348,53.3932271 482.415404,53.811852 482.415404,53.811852 C470.611771,53.8542444 462.989087,60.9284761 459.430775,65.2498513 L469.628797,78.6776438" fill="#101010"></path>
		<path d="M203.589995,0.590844067 L238.041768,0.590844067 C250.942305,0.590844067 258.986263,3.01780893 265.36102,8.17378452 C271.735777,13.3350591 278.563603,22.444126 278.563603,35.3420135 C278.563603,42.7792301 275.831943,54.4662847 267.787985,62.2081966 C261.113832,68.5803042 254.736425,70.0958325 249.122082,71.4629873 L279.628712,112.896259 L254.434379,112.896259 L224.685513,69.9448095 L224.383467,69.9448095 L224.383467,112.896259 L203.589995,112.896259 L203.589995,0.590844067 L203.589995,0.590844067 Z M224.383467,54.3126122 L237.739722,54.3126122 C254.890097,54.3126122 257.772781,42.930253 257.772781,37.0112142 C257.772781,30.7901296 253.978661,20.0171611 237.739722,20.0171611 L224.383467,20.0171611 L224.383467,54.3126122 L224.383467,54.3126122 Z" fill="#101010"></path>
		<path d="M277.951563,70.8562461 C277.951563,45.3572179 298.745035,25.7798779 322.874259,25.7798779 C346.704086,25.7798779 367.494908,44.7531262 367.494908,70.5515508 C367.494908,98.175498 346.248368,115.630569 322.874259,115.630569 C297.833598,115.630569 277.951563,94.9881195 277.951563,70.8562461 M347.310827,71.0072691 C347.310827,55.6797671 335.47275,44.2974079 322.874259,44.2974079 C312.403336,44.2974079 298.132994,53.2501527 298.132994,70.8562461 C298.132994,86.7904893 310.127394,97.1156881 322.874259,97.1156881 C337.597669,97.1156881 347.310827,84.3635244 347.310827,71.0072691" fill="#101010"></path>
		<path d="M374.317435,0.588194542 L394.498867,0.588194542 L394.498867,112.898908 L374.317435,112.898908 L374.317435,0.588194542 Z" fill="#101010"></path>
		<path d="M47.1302469,0.588194542 L63.3691854,0.588194542 L110.422099,112.896259 L87.5010587,112.896259 L75.5119583,83.9078061 L35.2948188,83.9078061 L23.3030688,112.896259 L0.384677906,112.896259 L47.1302469,0.588194542 L47.1302469,0.588194542 Z M42.2736676,64.3278166 L68.0747417,64.3278166 L55.3252276,29.878693 L55.0231817,29.878693 L42.2736676,64.3278166 L42.2736676,64.3278166 Z" fill="#00AFF0"></path>
		<path d="M193.429067,112.896259 L174.914186,112.896259 L174.914186,102.573709 L174.609491,102.573709 C170.815371,108.65172 162.013649,115.630569 147.745957,115.630569 C126.348394,115.630569 104.797158,98.0244751 104.797158,70.8562461 C104.797158,42.4745347 127.561876,25.7798779 147.745957,25.7798779 C160.039753,25.7798779 167.323297,29.878693 173.244986,36.0997776 L173.244986,0.585545017 L193.429067,0.585545017 L193.429067,112.896259 L193.429067,112.896259 Z M149.870876,97.1130385 C165.050005,97.1130385 174.763163,83.4520878 174.763163,70.7052232 C174.763163,56.8932496 164.138568,44.2974079 149.870876,44.2974079 C134.84807,44.2974079 124.981239,58.2577549 124.981239,70.0958325 C124.981239,85.7280298 136.668294,97.1130385 149.870876,97.1130385 L149.870876,97.1130385 Z" fill="#00AFF0"></path>
	</g>
</svg>

<svg width="512" height="116" xmlns="http://www.w3.org/2000/svg" preserveAspectRatio="xMidYMid"><path d="M469.629 78.678s3.881-8.648 13.47-7.676c0 0 9.864.972 10.005 11.7 0 0 .148 10.707-13.619 11.224h-55.598V.662H403.8v112.033l74.865.024c33.341-.546 32.358-29.492 32.358-29.492-1.24-29.834-28.607-29.415-28.607-29.415-11.803.042-19.426 7.116-22.984 11.438l10.198 13.428M203.59.59h34.452c12.9 0 20.944 2.428 27.319 7.584 6.375 5.161 13.203 14.27 13.203 27.168 0 7.437-2.732 19.124-10.776 26.866-6.674 6.372-13.052 7.888-18.666 9.255l30.507 41.433h-25.195l-29.748-42.951h-.303v42.951H203.59V.591zm20.793 53.723h13.357c17.15 0 20.033-11.383 20.033-17.302 0-6.22-3.794-16.994-20.033-16.994h-13.357v34.296z" fill="#101010"/><path d="M277.952 70.856c0-25.499 20.793-45.076 44.922-45.076 23.83 0 44.62 18.973 44.62 44.772 0 27.623-21.246 45.079-44.62 45.079-25.04 0-44.922-20.643-44.922-44.775m69.359.151c0-15.327-11.838-26.71-24.437-26.71-10.47 0-24.741 8.953-24.741 26.56 0 15.933 11.994 26.259 24.741 26.259 14.724 0 24.437-12.752 24.437-26.109M374.317.588H394.5v112.31h-20.182V.589z" fill="#101010"/><path d="M47.13.588h16.24l47.052 112.308h-22.92l-11.99-28.988H35.295l-11.992 28.988H.385L47.13.588zm-4.856 63.74h25.8l-12.749-34.45h-.302l-12.75 34.45zm151.156 48.568h-18.516v-10.322h-.305c-3.794 6.078-12.595 13.057-26.863 13.057-21.398 0-42.949-17.607-42.949-44.775 0-28.381 22.765-45.076 42.949-45.076 12.294 0 19.577 4.099 25.499 10.32V.586h20.184v112.31zm-43.56-15.783c15.18 0 24.893-13.66 24.893-26.408 0-13.812-10.624-26.408-24.892-26.408-15.023 0-24.89 13.96-24.89 25.799 0 15.632 11.687 27.017 24.89 27.017z" fill="#00AFF0"/></svg>
